!!!OTL: 606. Was stand im Briefe? (= Schluessel zum Garten.)
!!!ARE: Europa, Mitteleuropa, Deutschland, Kassel
!!!SCT: K2606
!!!TXL: @@DE
!!!YEM: Copyright 1995, estate of Helmut Schaffrath.
**kern	**text
*clefG2	*
*M2/4	*
*k[]	*
*C:	*
{8c	1._Wer
=1	=1
8g	hat
8g	den
16a	Schlüſſel
16a	.
8a	ʒum
=2	=2
4g	Gar-
8e	-ten?
8r}	.
=3	=3
{8g	Hier
8f	ein
8e	Garten,
8c	.
=4	=4
8g	da
8f	ein
8e	Garten
8c}	.
=5	=5
{8g	und
8g	an
16a	al-
16a	-len
8a	vier
=6	=6
16g	E-
16g	-cken
8f	ein
8e	Gar-
8c}	-ten.
=7	=7
{8g	2._Jn
8f	dem
8e	Gar-
8c	-ten
=8	=8
8g	ſteht
8f	ein
4e}	Haus,
=9	=9
{8g	hier
8f	ein
4e	Haus,
=10	=10
8g	da
8f	ein
4e}	Haus
=11	=11
{8g	und
8g	an
16a	al-
16a	-len
8a	vier
=12	=12
16g	E-
16g	-cken
8f	ein
4e}	Haus.
==	==
!!!AGN: Kinder - Lied, Gesellschafts - Spiel
!!!ONB: ESAC (Essen Associative Code) Database: KINDER
!!!AMT: simple duple
!!!AIN: vox
!!!EED: Helmut Schaffrath
!!!EEV: 1.0
!!Aus Kassֵ¿el: Lewalter II. 26; aehnlich aus Berlin: Zimmer Rr. 9.
!!!GTL: Zweites Buch. Kinderspiel: 10. Gesellschafts- und Pfaenderspiele. / [Nur um Theil fuer Kinder gehoerend; das meiste ist altes Erbgut der heranwachsenden Jugend.]
!!@@COMMENT:"Die Kinder bilden einen Kreis und klatſchen eins der Mitſpielenden am Schluß des Liedes aus. Die Tonangeberin hat vor Beginn des Spiels jedem Mitſpieler den Namen des ausʒuklatſchenden 
!!Kindes ins Ohr geflüſtert, dem letʒtern ſelbſt aber einen andern. Am Schluß löſt ſich der Kreis und ſtürʒt unter Schreien und Klatſchen auf das Opfer des Spiels los. - Vergl. Scherʒ- und 
!!Pfänderſpiele Nr. 9. Mannhardt, Mythen 656. Däniſch bei Thiele JV. 170. - Fiſchart in ſeinem Spielver- ʒeichniß meint vermuthlich dieſes Spiel mit dem Namen: "Rathet ihr, was ſtand im 
!!Brief?""
!!@@END:
!!!URL-scan: https://archive.org/details/DeutschesKinderliedUndKinderspiel/page/663/mode/1up
!!!ENC: Anna Maria Matuszewska
!!!EEV: 2024/05/09
*-	*-
